Newaita-dark/.places-bluegray/64/folder-megasync.svg

<?xml version="1.0" encoding="UTF-8"?>
<svg xmlns="http://www.w3.org/2000/svg" xmlns:xlink="http://www.w3.org/1999/xlink" width="64px" height="64px" viewBox="0 0 64 64" version="1.1">
<defs>
<linearGradient id="linear0" gradientUnits="userSpaceOnUse" x1="254" y1="233.5" x2="254" y2="254.666672" gradientTransform="matrix(0.125012,0,0,0.125012,-0.00000763012,26.877574)">
<stop offset="0" style="stop-color:rgb(0%,0%,0%);stop-opacity:0.27451;"/>
<stop offset="1" style="stop-color:rgb(0%,0%,0%);stop-opacity:0;"/>
</linearGradient>
<radialGradient id="radial0" gradientUnits="userSpaceOnUse" cx="450.908936" cy="189.579361" fx="450.908936" fy="189.579361" r="21.166656" gradientTransform="matrix(0.000000348341,-0.156265,-0.281277,-0.000000203077,108.230425,127.190669)">
<stop offset="0" style="stop-color:rgb(0%,0%,0%);stop-opacity:0.313726;"/>
<stop offset="0.222222" style="stop-color:rgb(0%,0%,0%);stop-opacity:0.27451;"/>
<stop offset="1" style="stop-color:rgb(0%,0%,0%);stop-opacity:0;"/>
</radialGradient>
<radialGradient id="radial1" gradientUnits="userSpaceOnUse" cx="450.908936" cy="189.579361" fx="450.908936" fy="189.579361" r="21.166656" gradientTransform="matrix(-0.000000348341,0.156265,0.281277,0.000000203077,-44.724356,-15.054954)">
<stop offset="0" style="stop-color:rgb(0%,0%,0%);stop-opacity:0.313726;"/>
<stop offset="0.222222" style="stop-color:rgb(0%,0%,0%);stop-opacity:0.27451;"/>
<stop offset="1" style="stop-color:rgb(0%,0%,0%);stop-opacity:0;"/>
</radialGradient>
<radialGradient id="radial2" gradientUnits="userSpaceOnUse" cx="450.908936" cy="189.579361" fx="450.908936" fy="189.579361" r="21.166656" gradientTransform="matrix(-0.000000348341,-0.156265,0.281277,-0.000000203077,-44.724356,127.190669)">
<stop offset="0" style="stop-color:rgb(0%,0%,0%);stop-opacity:0.313726;"/>
<stop offset="0.222222" style="stop-color:rgb(0%,0%,0%);stop-opacity:0.27451;"/>
<stop offset="1" style="stop-color:rgb(0%,0%,0%);stop-opacity:0;"/>
</radialGradient>
<radialGradient id="radial3" gradientUnits="userSpaceOnUse" cx="450.908936" cy="189.579361" fx="450.908936" fy="189.579361" r="21.166656" gradientTransform="matrix(0.000000348341,0.156265,-0.281277,0.000000203077,108.230422,-15.054955)">
<stop offset="0" style="stop-color:rgb(0%,0%,0%);stop-opacity:0.313726;"/>
<stop offset="0.222222" style="stop-color:rgb(0%,0%,0%);stop-opacity:0.27451;"/>
<stop offset="1" style="stop-color:rgb(0%,0%,0%);stop-opacity:0;"/>
</radialGradient>
<linearGradient id="linear1" gradientUnits="userSpaceOnUse" x1="254" y1="-147.5" x2="254" y2="-31.083334" gradientTransform="matrix(0.125012,0,0,0.125012,0.00000249951,26.877563)">
<stop offset="0" style="stop-color:rgb(64.313728%,64.313728%,64.313728%);stop-opacity:0;"/>
<stop offset="1" style="stop-color:rgb(100%,100%,100%);stop-opacity:0.196078;"/>
</linearGradient>
<linearGradient id="linear2" gradientUnits="userSpaceOnUse" x1="254" y1="233.5" x2="254" y2="-105.166656" gradientTransform="matrix(0.125012,0,0,0.125012,-0.00000362479,26.877566)">
<stop offset="0" style="stop-color:rgb(34.509805%,34.509805%,34.509805%);stop-opacity:0;"/>
<stop offset="1" style="stop-color:rgb(98.039216%,98.039216%,98.039216%);stop-opacity:0.196078;"/>
</linearGradient>
</defs>
<g id="surface1">
<path style=" stroke:none;fill-rule:nonzero;fill:url(#linear0);" d="M 7.9375 56.066406 L 55.566406 56.066406 L 55.566406 58.714844 L 7.9375 58.714844 Z M 7.9375 56.066406 "/>
<path style=" stroke:none;fill-rule:nonzero;fill:url(#radial0);" d="M 55.566406 56.066406 L 60.859375 56.066406 L 60.859375 53.421875 L 55.566406 53.421875 Z M 55.566406 56.066406 "/>
<path style=" stroke:none;fill-rule:nonzero;fill:url(#radial1);" d="M 7.9375 56.066406 L 2.644531 56.066406 L 2.644531 58.714844 L 7.9375 58.714844 Z M 7.9375 56.066406 "/>
<path style=" stroke:none;fill-rule:nonzero;fill:url(#radial2);" d="M 7.9375 56.066406 L 2.644531 56.066406 L 2.644531 53.421875 L 7.9375 53.421875 Z M 7.9375 56.066406 "/>
<path style=" stroke:none;fill-rule:nonzero;fill:url(#radial3);" d="M 55.566406 56.066406 L 60.859375 56.066406 L 60.859375 58.714844 L 55.566406 58.714844 Z M 55.566406 56.066406 "/>
<path style=" stroke:none;fill-rule:nonzero;fill:rgb(56.470591%,64.313728%,68.235296%);fill-opacity:1;" d="M 14.554688 8.4375 L 57.550781 8.4375 C 59.015625 8.4375 60.199219 9.621094 60.199219 11.085938 L 60.199219 21.007812 C 60.199219 22.46875 59.015625 23.652344 57.550781 23.652344 L 14.554688 23.652344 C 13.09375 23.652344 11.90625 22.46875 11.90625 21.007812 L 11.90625 11.085938 C 11.90625 9.621094 13.09375 8.4375 14.554688 8.4375 Z M 14.554688 8.4375 "/>
<path style=" stroke:none;fill-rule:nonzero;fill:url(#linear1);" d="M 14.554688 8.4375 L 57.550781 8.4375 C 59.015625 8.4375 60.199219 9.621094 60.199219 11.085938 L 60.199219 21.007812 C 60.199219 22.46875 59.015625 23.652344 57.550781 23.652344 L 14.554688 23.652344 C 13.09375 23.652344 11.90625 22.46875 11.90625 21.007812 L 11.90625 11.085938 C 11.90625 9.621094 13.09375 8.4375 14.554688 8.4375 Z M 14.554688 8.4375 "/>
<path style=" stroke:none;fill-rule:nonzero;fill:rgb(100%,100%,100%);fill-opacity:0.392157;" d="M 14.554688 8.605469 C 13.085938 8.605469 11.90625 9.785156 11.90625 11.25 L 11.90625 11.582031 C 11.90625 10.113281 13.085938 8.933594 14.554688 8.933594 L 57.550781 8.933594 C 59.019531 8.933594 60.199219 10.113281 60.199219 11.582031 L 60.199219 11.25 C 60.199219 9.785156 59.019531 8.605469 57.550781 8.605469 Z M 14.554688 8.605469 "/>
<path style=" stroke:none;fill-rule:nonzero;fill:rgb(12.941177%,12.941177%,12.941177%);fill-opacity:1;" d="M 14.554688 8.25 C 12.988281 8.25 11.71875 9.519531 11.71875 11.085938 L 11.71875 21.007812 C 11.71875 22.574219 12.988281 23.839844 14.554688 23.839844 L 57.550781 23.839844 C 59.117188 23.839844 60.386719 22.574219 60.386719 21.007812 L 60.386719 11.085938 C 60.386719 9.519531 59.117188 8.25 57.550781 8.25 Z M 14.554688 8.625 L 57.550781 8.625 C 58.917969 8.625 60.011719 9.71875 60.011719 11.085938 L 60.011719 21.007812 C 60.011719 22.371094 58.917969 23.464844 57.550781 23.464844 L 14.554688 23.464844 C 13.1875 23.464844 12.09375 22.371094 12.09375 21.007812 L 12.09375 11.085938 C 12.09375 9.71875 13.1875 8.625 14.554688 8.625 Z M 14.554688 8.625 "/>
<path style=" stroke:none;fill-rule:nonzero;fill:rgb(69.01961%,74.509805%,77.254903%);fill-opacity:1;" d="M 5.292969 13.730469 C 3.828125 13.730469 2.644531 14.910156 2.644531 16.375 L 2.644531 53.421875 C 2.644531 54.886719 3.828125 56.066406 5.292969 56.066406 L 58.214844 56.066406 C 59.679688 56.066406 60.859375 54.886719 60.859375 53.421875 L 60.859375 20.34375 L 25.136719 20.34375 C 23.671875 20.34375 22.492188 19.164062 22.492188 17.699219 L 22.492188 13.730469 Z M 5.292969 13.730469 "/>
<path style=" stroke:none;fill-rule:nonzero;fill:url(#linear2);" d="M 5.292969 13.730469 C 3.828125 13.730469 2.644531 14.910156 2.644531 16.375 L 2.644531 53.421875 C 2.644531 54.886719 3.828125 56.066406 5.292969 56.066406 L 58.214844 56.066406 C 59.679688 56.066406 60.859375 54.886719 60.859375 53.421875 L 60.859375 20.34375 L 25.136719 20.34375 C 23.671875 20.34375 22.492188 19.164062 22.492188 17.699219 L 22.492188 13.730469 Z M 5.292969 13.730469 "/>
<path style=" stroke:none;fill-rule:nonzero;fill:rgb(0%,0%,0%);fill-opacity:0.196078;" d="M 5.292969 56.066406 C 3.828125 56.066406 2.644531 54.886719 2.644531 53.421875 L 2.644531 53.089844 C 2.644531 54.558594 3.828125 55.738281 5.292969 55.738281 L 58.214844 55.738281 C 59.679688 55.738281 60.859375 54.558594 60.859375 53.089844 L 60.859375 53.421875 C 60.859375 54.886719 59.679688 56.066406 58.214844 56.066406 Z M 5.292969 56.066406 "/>
<path style=" stroke:none;fill-rule:nonzero;fill:rgb(100%,100%,100%);fill-opacity:0.392157;" d="M 5.292969 13.894531 C 3.828125 13.894531 2.644531 15.074219 2.644531 16.542969 L 2.644531 16.871094 C 2.644531 15.40625 3.828125 14.226562 5.292969 14.226562 L 22.492188 14.226562 L 22.492188 13.894531 Z M 5.292969 13.894531 "/>
<path style=" stroke:none;fill-rule:nonzero;fill:rgb(100%,100%,100%);fill-opacity:0.392157;" d="M 24.972656 20.675781 C 23.507812 20.675781 22.328125 19.496094 22.328125 18.03125 L 22.328125 17.699219 C 22.328125 19.164062 23.507812 20.347656 24.972656 20.347656 L 60.859375 20.347656 L 60.859375 20.675781 Z M 24.972656 20.675781 "/>
<path style=" stroke:none;fill-rule:nonzero;fill:rgb(12.941177%,12.941177%,12.941177%);fill-opacity:1;" d="M 5.292969 13.542969 C 3.726562 13.542969 2.457031 14.808594 2.457031 16.375 L 2.457031 53.421875 C 2.457031 54.988281 3.726562 56.253906 5.292969 56.253906 L 58.214844 56.253906 C 59.78125 56.253906 61.046875 54.988281 61.046875 53.421875 L 61.046875 19.96875 L 25.136719 19.96875 C 23.773438 19.96875 22.679688 18.878906 22.679688 17.511719 L 22.679688 13.542969 Z M 5.292969 13.917969 L 22.304688 13.917969 L 22.304688 17.511719 C 22.304688 19.078125 23.570312 20.34375 25.136719 20.34375 L 60.671875 20.34375 L 60.671875 53.421875 C 60.671875 54.785156 59.578125 55.878906 58.214844 55.878906 L 5.292969 55.878906 C 3.925781 55.878906 2.832031 54.785156 2.832031 53.421875 L 2.832031 16.375 C 2.832031 15.011719 3.925781 13.917969 5.292969 13.917969 Z M 5.292969 13.917969 "/>
<path style=" stroke:none;fill-rule:nonzero;fill:rgb(47.058824%,56.470591%,61.176473%);fill-opacity:1;" d="M 24.679688 26.328125 C 24.183594 26.320312 23.6875 26.5 23.316406 26.875 L 23.207031 26.984375 C 22.777344 27.414062 22.601562 28 22.679688 28.570312 L 22.679688 44.214844 C 22.679688 45.3125 23.5625 46.199219 24.664062 46.199219 C 25.761719 46.199219 26.648438 45.3125 26.648438 44.214844 L 26.648438 33.125 L 30.511719 36.984375 C 30.898438 37.371094 31.394531 37.574219 31.890625 37.585938 C 31.90625 37.585938 31.921875 37.585938 31.941406 37.585938 C 31.957031 37.585938 31.972656 37.585938 31.992188 37.585938 C 32.484375 37.574219 32.984375 37.371094 33.371094 36.984375 L 37.234375 33.125 L 37.234375 44.214844 C 37.234375 45.3125 38.117188 46.199219 39.21875 46.199219 C 40.316406 46.199219 41.203125 45.3125 41.203125 44.214844 L 41.203125 28.570312 C 41.277344 28 41.105469 27.414062 40.675781 26.984375 L 40.566406 26.875 C 39.820312 26.128906 38.589844 26.152344 37.8125 26.929688 L 31.941406 32.800781 L 26.066406 26.929688 C 25.679688 26.539062 25.175781 26.339844 24.679688 26.328125 Z M 24.679688 26.328125 "/>
<path style=" stroke:none;fill-rule:nonzero;fill:rgb(0%,0%,0%);fill-opacity:0.235294;" d="M 24.679688 26.328125 C 24.183594 26.320312 23.6875 26.5 23.316406 26.875 L 23.207031 26.984375 C 22.777344 27.414062 22.601562 28 22.679688 28.570312 L 22.679688 28.59375 C 22.730469 28.199219 22.90625 27.824219 23.207031 27.523438 L 23.316406 27.414062 C 23.6875 27.042969 24.183594 26.859375 24.679688 26.871094 C 25.175781 26.878906 25.679688 27.082031 26.066406 27.46875 L 31.941406 33.34375 L 37.8125 27.46875 C 38.589844 26.691406 39.820312 26.667969 40.566406 27.414062 L 40.675781 27.523438 C 40.972656 27.824219 41.148438 28.199219 41.203125 28.59375 L 41.203125 28.570312 C 41.277344 28 41.105469 27.414062 40.675781 26.984375 L 40.566406 26.875 C 39.820312 26.128906 38.589844 26.152344 37.8125 26.929688 L 31.941406 32.800781 L 26.066406 26.929688 C 25.679688 26.539062 25.175781 26.339844 24.679688 26.328125 Z M 24.679688 26.328125 "/>
<path style=" stroke:none;fill-rule:nonzero;fill:rgb(100%,100%,100%);fill-opacity:0.392157;" d="M 22.675781 28.535156 C 22.65625 28.703125 22.65625 28.871094 22.679688 29.039062 L 22.679688 28.554688 C 22.679688 28.546875 22.679688 28.542969 22.675781 28.535156 Z M 41.203125 28.535156 C 41.203125 28.542969 41.203125 28.546875 41.203125 28.554688 L 41.203125 29.039062 C 41.222656 28.871094 41.226562 28.703125 41.203125 28.535156 Z M 26.648438 33.105469 L 26.648438 33.589844 L 30.511719 37.453125 C 30.898438 37.839844 31.394531 38.039062 31.890625 38.050781 C 31.90625 38.050781 31.921875 38.050781 31.941406 38.050781 C 31.957031 38.050781 31.972656 38.054688 31.992188 38.050781 C 32.484375 38.039062 32.984375 37.839844 33.371094 37.453125 L 37.234375 33.589844 L 37.234375 33.105469 L 33.371094 36.96875 C 32.984375 37.355469 32.484375 37.554688 31.992188 37.566406 C 31.972656 37.566406 31.957031 37.566406 31.941406 37.566406 C 31.921875 37.566406 31.90625 37.566406 31.890625 37.566406 C 31.394531 37.554688 30.898438 37.355469 30.511719 36.96875 Z M 22.679688 44.195312 L 22.679688 44.679688 C 22.679688 45.78125 23.5625 46.664062 24.664062 46.664062 C 25.761719 46.664062 26.648438 45.78125 26.648438 44.679688 L 26.648438 44.195312 C 26.648438 45.296875 25.761719 46.179688 24.664062 46.179688 C 23.5625 46.179688 22.679688 45.296875 22.679688 44.195312 Z M 37.234375 44.195312 L 37.234375 44.679688 C 37.234375 45.78125 38.117188 46.664062 39.21875 46.664062 C 40.316406 46.664062 41.203125 45.78125 41.203125 44.679688 L 41.203125 44.195312 C 41.203125 45.296875 40.316406 46.179688 39.21875 46.179688 C 38.117188 46.179688 37.234375 45.296875 37.234375 44.195312 Z M 37.234375 44.195312 "/>
<path style=" stroke:none;fill-rule:nonzero;fill:rgb(12.941177%,12.941177%,12.941177%);fill-opacity:1;" d="M 24.683594 26.140625 C 24.136719 26.132812 23.59375 26.332031 23.183594 26.742188 L 23.074219 26.851562 C 22.601562 27.324219 22.410156 27.972656 22.492188 28.59375 L 22.492188 28.570312 L 22.492188 44.214844 C 22.492188 45.414062 23.464844 46.386719 24.664062 46.386719 C 25.863281 46.386719 26.835938 45.414062 26.835938 44.214844 L 26.835938 33.574219 L 30.378906 37.117188 C 30.796875 37.539062 31.34375 37.757812 31.886719 37.773438 C 31.90625 37.773438 31.925781 37.773438 31.941406 37.773438 C 31.957031 37.773438 31.976562 37.773438 31.996094 37.773438 C 32.539062 37.757812 33.082031 37.539062 33.503906 37.117188 L 37.046875 33.574219 L 37.046875 44.214844 C 37.046875 45.414062 38.015625 46.386719 39.21875 46.386719 C 40.417969 46.386719 41.390625 45.414062 41.390625 44.214844 L 41.390625 28.570312 L 41.386719 28.59375 C 41.472656 27.972656 41.28125 27.324219 40.808594 26.851562 L 40.699219 26.742188 C 39.878906 25.921875 38.527344 25.949219 37.679688 26.796875 L 31.941406 32.539062 L 26.199219 26.796875 C 25.777344 26.375 25.230469 26.152344 24.683594 26.140625 Z M 39.203125 26.515625 C 39.652344 26.507812 40.097656 26.671875 40.433594 27.007812 L 40.542969 27.117188 C 40.929688 27.503906 41.085938 28.03125 41.015625 28.546875 L 41.015625 44.214844 C 41.015625 45.210938 40.214844 46.011719 39.21875 46.011719 C 38.21875 46.011719 37.421875 45.210938 37.421875 44.214844 L 37.421875 32.671875 L 33.238281 36.851562 C 32.886719 37.207031 32.433594 37.386719 31.988281 37.398438 L 31.984375 37.398438 C 31.972656 37.398438 31.960938 37.398438 31.941406 37.398438 C 31.921875 37.398438 31.90625 37.398438 31.894531 37.398438 C 31.445312 37.386719 30.996094 37.207031 30.644531 36.851562 L 26.460938 32.671875 L 26.460938 44.214844 C 26.460938 45.210938 25.664062 46.011719 24.664062 46.011719 C 23.664062 46.011719 22.867188 45.210938 22.867188 44.214844 L 22.867188 28.558594 L 22.863281 28.546875 C 22.796875 28.03125 22.953125 27.503906 23.339844 27.117188 L 23.449219 27.007812 C 23.785156 26.671875 24.226562 26.507812 24.675781 26.515625 C 25.125 26.527344 25.578125 26.707031 25.933594 27.0625 L 31.941406 33.066406 L 37.945312 27.0625 C 38.300781 26.707031 38.753906 26.523438 39.203125 26.515625 Z M 39.203125 26.515625 "/>
</g>
</svg>

<svg xmlns="http://www.w3.org/2000/svg" width="64pt" height="64pt" viewBox="0 0 64 64"><defs><linearGradient id="a" gradientUnits="userSpaceOnUse" x1="254" y1="233.5" x2="254" y2="254.667" gradientTransform="translate(0 26.878) scale(.12501)"><stop offset="0" stop-opacity=".275"/><stop offset="1" stop-opacity="0"/></linearGradient><radialGradient id="b" gradientUnits="userSpaceOnUse" cx="450.909" cy="189.579" fx="450.909" fy="189.579" r="21.167" gradientTransform="matrix(0 -.15626 -.28128 0 108.23 127.19)"><stop offset="0" stop-opacity=".314"/><stop offset=".222" stop-opacity=".275"/><stop offset="1" stop-opacity="0"/></radialGradient><radialGradient id="c" gradientUnits="userSpaceOnUse" cx="450.909" cy="189.579" fx="450.909" fy="189.579" r="21.167" gradientTransform="matrix(0 .15626 .28128 0 -44.724 -15.055)"><stop offset="0" stop-opacity=".314"/><stop offset=".222" stop-opacity=".275"/><stop offset="1" stop-opacity="0"/></radialGradient><radialGradient id="d" gradientUnits="userSpaceOnUse" cx="450.909" cy="189.579" fx="450.909" fy="189.579" r="21.167" gradientTransform="matrix(0 -.15626 .28128 0 -44.724 127.19)"><stop offset="0" stop-opacity=".314"/><stop offset=".222" stop-opacity=".275"/><stop offset="1" stop-opacity="0"/></radialGradient><radialGradient id="e" gradientUnits="userSpaceOnUse" cx="450.909" cy="189.579" fx="450.909" fy="189.579" r="21.167" gradientTransform="matrix(0 .15626 -.28128 0 108.23 -15.055)"><stop offset="0" stop-opacity=".314"/><stop offset=".222" stop-opacity=".275"/><stop offset="1" stop-opacity="0"/></radialGradient><linearGradient id="f" gradientUnits="userSpaceOnUse" x1="254" y1="-147.5" x2="254" y2="-31.083" gradientTransform="translate(0 26.878) scale(.12501)"><stop offset="0" stop-color="#a4a4a4" stop-opacity="0"/><stop offset="1" stop-color="#fff" stop-opacity=".196"/></linearGradient><linearGradient id="g" gradientUnits="userSpaceOnUse" x1="254" y1="233.5" x2="254" y2="-105.167" gradientTransform="translate(0 26.878) scale(.12501)"><stop offset="0" stop-color="#585858" stop-opacity="0"/><stop offset="1" stop-color="#fafafa" stop-opacity=".196"/></linearGradient><linearGradient id="h" gradientUnits="userSpaceOnUse" x1="254" y1="-147.5" x2="254" y2="233.5" gradientTransform="translate(0 26.878) scale(.12501)"><stop offset="0" stop-color="#585858" stop-opacity="0"/><stop offset="1" stop-color="#fafafa" stop-opacity=".196"/></linearGradient></defs><path d="M7.938 56.066h47.628v2.649H7.937zm0 0" fill="url(#a)"/><path d="M55.566 56.066h5.293v-2.644h-5.293zm0 0" fill="url(#b)"/><path d="M7.938 56.066H2.644v2.649h5.292zm0 0" fill="url(#c)"/><path d="M7.938 56.066H2.644v-2.644h5.292zm0 0" fill="url(#d)"/><path d="M55.566 56.066h5.293v2.649h-5.293zm0 0" fill="url(#e)"/><path d="M14.555 8.438H57.55a2.646 2.646 0 0 1 2.648 2.648v9.922a2.645 2.645 0 0 1-2.648 2.644H14.555a2.647 2.647 0 0 1-2.649-2.644v-9.922a2.648 2.648 0 0 1 2.649-2.649zm0 0" fill="#546e7a"/><path d="M14.555 8.438H57.55a2.646 2.646 0 0 1 2.648 2.648v9.922a2.645 2.645 0 0 1-2.648 2.644H14.555a2.647 2.647 0 0 1-2.649-2.644v-9.922a2.648 2.648 0 0 1 2.649-2.649zm0 0" fill="url(#f)"/><path d="M14.555 8.438a2.64 2.64 0 0 0-2.649 2.648v.328a2.64 2.64 0 0 1 2.649-2.644H57.55a2.64 2.64 0 0 1 2.648 2.644v-.328a2.64 2.64 0 0 0-2.648-2.649zm0 0" fill="#e6e6e6" fill-opacity=".588"/><path d="M14.555 8.25a2.836 2.836 0 0 0-2.836 2.836v9.922a2.832 2.832 0 0 0 2.836 2.832H57.55a2.832 2.832 0 0 0 2.836-2.832v-9.922A2.836 2.836 0 0 0 57.55 8.25zm0 .375H57.55a2.45 2.45 0 0 1 2.46 2.46v9.923a2.45 2.45 0 0 1-2.46 2.457H14.555a2.45 2.45 0 0 1-2.461-2.457v-9.922a2.45 2.45 0 0 1 2.46-2.461zm0 0" fill="#212121"/><path d="M5.293 13.73a2.642 2.642 0 0 0-2.648 2.645v37.047a2.642 2.642 0 0 0 2.648 2.644h52.922a2.639 2.639 0 0 0 2.644-2.644V20.344H25.137a2.639 2.639 0 0 1-2.645-2.645V13.73zm0 0" fill="#78909c"/><path d="M5.293 13.73a2.642 2.642 0 0 0-2.648 2.645v37.047a2.642 2.642 0 0 0 2.648 2.644h52.922a2.639 2.639 0 0 0 2.644-2.644V20.344H25.137a2.639 2.639 0 0 1-2.645-2.645V13.73zm0 0" fill="url(#g)"/><path d="M5.293 56.066a2.642 2.642 0 0 1-2.648-2.644v-.332a2.643 2.643 0 0 0 2.648 2.648h52.922a2.64 2.64 0 0 0 2.644-2.648v.332a2.639 2.639 0 0 1-2.644 2.644zm0 0" fill-opacity=".196"/><path d="M5.293 13.73a2.642 2.642 0 0 0-2.648 2.645v.332a2.642 2.642 0 0 1 2.648-2.645h17.2v-.332zm0 0M24.973 20.512a2.64 2.64 0 0 1-2.645-2.649v-.328a2.637 2.637 0 0 0 2.645 2.645h35.886v.332zm0 0" fill="#e6e6e6" fill-opacity=".937"/><path d="M5.293 13.543a2.832 2.832 0 0 0-2.836 2.832v37.047a2.832 2.832 0 0 0 2.836 2.832h52.922a2.83 2.83 0 0 0 2.832-2.832V19.969h-35.91a2.447 2.447 0 0 1-2.457-2.457v-3.969zm0 .375h17.012v3.594a2.83 2.83 0 0 0 2.832 2.832h35.535v33.078a2.449 2.449 0 0 1-2.457 2.457H5.293a2.45 2.45 0 0 1-2.461-2.457V16.375a2.45 2.45 0 0 1 2.461-2.457zm0 0" fill="#212121"/><path d="M24.68 26.328a1.865 1.865 0 0 0-1.364.547l-.109.11a1.868 1.868 0 0 0-.527 1.585v15.645a1.98 1.98 0 0 0 1.984 1.984 1.982 1.982 0 0 0 1.984-1.984v-11.09l3.864 3.86c.386.386.883.59 1.379.6h.101a2.026 2.026 0 0 0 1.38-.6l3.862-3.86v11.09a1.98 1.98 0 0 0 1.985 1.984 1.982 1.982 0 0 0 1.984-1.984V28.57a1.88 1.88 0 0 0-.527-1.586l-.11-.109c-.746-.746-1.976-.723-2.754.055l-5.87 5.87-5.876-5.87a2.02 2.02 0 0 0-1.386-.602zm0 0" fill="#546e7a"/><path d="M24.68 26.328a1.865 1.865 0 0 0-1.364.547l-.109.11a1.868 1.868 0 0 0-.527 1.585v15.645a1.98 1.98 0 0 0 1.984 1.984 1.982 1.982 0 0 0 1.984-1.984v-11.09l3.864 3.86c.386.386.883.59 1.379.6h.101a2.026 2.026 0 0 0 1.38-.6l3.862-3.86v11.09a1.98 1.98 0 0 0 1.985 1.984 1.982 1.982 0 0 0 1.984-1.984V28.57a1.88 1.88 0 0 0-.527-1.586l-.11-.109c-.746-.746-1.976-.723-2.754.055l-5.87 5.87-5.876-5.87a2.02 2.02 0 0 0-1.386-.602zm0 0" fill="url(#h)"/><path d="M24.684 26.14a2.066 2.066 0 0 0-1.5.602l-.11.11a2.07 2.07 0 0 0-.582 1.742v-.024 15.645a2.172 2.172 0 0 0 4.344 0v-10.64l3.543 3.542c.418.422.965.64 1.508.656h.109a2.22 2.22 0 0 0 1.508-.656l3.543-3.543v10.64a2.172 2.172 0 0 0 4.344 0V28.57l-.004.024a2.055 2.055 0 0 0-.578-1.742l-.11-.11c-.82-.82-2.172-.793-3.02.055l-5.738 5.742-5.742-5.742a2.213 2.213 0 0 0-1.515-.656zm14.52.376c.448-.008.894.156 1.23.492l.109.11c.387.386.543.913.473 1.429v15.668c0 .996-.801 1.797-1.797 1.797-1 0-1.797-.801-1.797-1.797V32.672l-4.184 4.18a1.825 1.825 0 0 1-1.25.546h-.093a1.818 1.818 0 0 1-1.25-.546l-4.184-4.18v11.543a1.79 1.79 0 0 1-1.797 1.797c-1 0-1.797-.801-1.797-1.797V28.559l-.004-.012a1.697 1.697 0 0 1 .477-1.43l.11-.11a1.68 1.68 0 0 1 1.226-.491c.449.011.902.191 1.258.547l6.007 6.003 6.004-6.004c.356-.355.809-.539 1.258-.546zm0 0" fill="#212121"/></svg>
